**kern	**kern	**dynam
*part1	*part1	*part1
*staff2	*staff1	*
*I"Piano	*	*
*clefF4	*clefG2	*
*k[b-]	*k[b-]	*
=1	=1	=1
2.r	2.r	.
=	=	=
(8AAAL	(2A 2e 2a	p
8AA	.	.
8E	.	.
8GJ)	.	.
4r	4c#X)	.
=	=	=
2.r	2.r	.
*	*clefF4	*
=	=	=
*^	*^	*
4.D	2.D	2.d	4.d	.
8AA	.	.	8A	.
[4BB-	.	.	[4B-	.
=	=	=	=	=
4.BB-]	2.GG 2.D	2.G 2.d	4.B-]	<
8AA	.	.	8A	.
[4BB-	.	.	[4B-	.
=	=	=	=	=
4.BB-]	2.FF 2.D	2.F 2.d	4.B-]	.
8AA	.	.	8A	.
[4BB-	.	.	[4B-	.
=	=	=	=	=
4.BB-]	2.EE 2.GG 2.D	2.E 2.G 2.d	4.B-]	.
8AA	.	.	8A	.
4BB-	.	.	4B-	.
*v	*v	*	*	*
*	*v	*v	*
=	=	=
(2.AAA 2.AA	[2.D [2.F [2.A [2.d	[ f >
=	=	=
2DDD;) 2DD	2D;] 2F] 2A] 2d]	.
==	==	==
*-	*-	*-
!!!system-decoration: {(s1,s2)}
